!!!COM: Haydn, Franz Joseph
!!!OPR: String Quartet in C Major
!!!ONM: Opus 64, No. 1
!!!OTL: Allegretto scherzando
!!!OMV: 3
!!!SCT: H III:65
!!!SCA: Thematisch-bibliographisches Werkevererzeichnis (A. van Hoboken)
!!!YOR: Dover Edition; reprint of Eulenburg Edition
!!!EED: Walter Hewlett
!!!ENC: Walter Hewlett
!!!CDT: 1732/3/31/-1809/5/31/
!!!OCY: Österreich
!!!YEC: Copyright (c) 1994, 2000 Center for Computer Assisted Research in the Humanities
!!!YEM: Rights to all derivative editions reserved.
!!!YEM: Refer to licensing agreement for further details.
!!!YEN: United States of America
**kern	**kern	**kern	**kern
*I:Violino I	*I:Violino II	*I:Viola	*I:Violoncello
*>[A,A,B,B,C,C,D,D,E]	*>[A,A,B,B,C,C,D,D,E]	*>[A,A,B,B,C,C,D,D,E]	*>[A,A,B,B,C,C,D,D,E]
*>A	*>A	*>A	*>A
*clefG2	*clefG2	*clefC3	*clefF4
*k[b-]	*k[b-]	*k[b-]	*k[b-]
*F:	*F:	*F:	*F:
*M2/4	*M2/4	*M2/4	*M2/4
! Allegretto scherzando	! Allegretto scherzando	! Allegretto scherzando	! Allegretto scherzando
! dol.	!	!	!
*tb32	*tb32	*tb32	*tb32
=0-	=0-	=0-	=0-
8c	8r	8r	8r
32ryy	32ryy	32ryy	32ryy
32ryy	32ryy	32ryy	32ryy
32ryy	32ryy	32ryy	32ryy
32ryy	32ryy	32ryy	32ryy
32ryy	32ryy	32ryy	32ryy
32ryy	32ryy	32ryy	32ryy
32ryy	32ryy	32ryy	32ryy
32ryy	32ryy	32ryy	32ryy
32ryy	32ryy	32ryy	32ryy
32ryy	32ryy	32ryy	32ryy
32ryy	32ryy	32ryy	32ryy
32ryy	32ryy	32ryy	32ryy
=1	=1	=1	=1
(8f	8A'	8c'	8F'
16ck)	8r	8r	8r
16r	.	.	.
(8a	8c'	8c'	8F'
16fk)	8r	8r	8r
16r	.	.	.
=2	=2	=2	=2
(8g	8c'	8c'	8E'
8cc)	8r	8r	8r
8cc'	8r	8r	8r
8cc'	8g	8c'	8E'
=3	=3	=3	=3
(8a	8a	4c	4F
8dd)	8r	.	.
8dd	8r	8r	8r
(32ccn	8f	8d	8G
32bn	.	.	.
32a	.	.	.
32b)	.	.	.
=4	=4	=4	=4
(4bn	(4f	(4d	4.C
8cc)	8e)	8c)	.
8cc#'	8f'	8F'	8AA'
=5	=5	=5	=5
(8dd	8f'	8F'	8BB-'
16fk)	8r	8r	8r
16r	.	.	.
(8ccn	8f'	8F'	8AA'
16fk)	8r	8r	8r
16r	.	.	.
=6	=6	=6	=6
(8e	[2c	(8B-	(8GG
8b-)	.	8G)	8EE)
8b-'	.	8G'	8EE'
8a'	.	8F'	8FF'
=7	=7	=7	=7
(8f	(8.c]	(8.A	8DD'
! 32gP/LLL	!	!	!
! 32fP/	!	!	!
! 32eP/JJJ	!	!	!
16.f	.	.	8D'
.	32d	16Gk)	.
32gk)	32e)	.	.
8a'	8f'	(32G	8r
.	.	32F	.
.	.	32E	.
.	.	32F)	.
8bn'	8d'	16G'	8GG'
.	.	16F'	.
=8	=8	=8	=8
(4bn	(4d	(4F	8CC'
.	.	.	8C'
8cc)	8e)	8E)	8CC'
8cc	8r	8r	8r
=9	=9	=9	=9
(8f	(8c	2r	(8A-
16ek)	16B-k)	.	16Gk)
16r	16r	.	16r
(8g	(8d-	.	(8B-
16fk)	16ck)	.	16A-k)
16r	16r	.	16r
=10	=10	=10	=10
8b-'	8c'	8g'	8E'
8b-'	8c'	8g'	8E'
8b-'	8c'	8g'	8E'
8gg	8r	8r	8r
=11	=11	=11	=11
(8b-	(8g	(8e	2r
16a-k)	16a-k)	16fk)	.
16r	16r	16r	.
(8ff	8a-	(8d-	.
16ee-k)	8a-	16ck)	.
16r	.	16r	.
=12	=12	=12	=12
8dd'	[2a-	8B-'	2r
8dd'	.	8B-'	.
8dd'	.	8B-'	.
8ee-	.	(8c-	.
=13	=13	=13	=13
8dd'	8a-]	8B-)	2r
8dd'	8a-'	8B-'	.
8dd'	8a-'	8B-'	.
8r	8r	8r	.
=14	=14	=14	=14
24g'	4dd- 4e-	4b- 4g	4E-
24b-'	.	.	.
24dd-'	.	.	.
24ee-'	.	.	.
24gg'	.	.	.
24bb-'	.	.	.
8ddd-'	8b- 8e-'	8b-'	8GG'
8ccc'	8cc 8e-'	8a-'	8AA-'
=15	=15	=15	=15
8bb-'	8ff'	8f'	4D-
8r	8r	8r	.
! dim.	! dim.	! dim.	!
8gg'	8b-'	8d-'	8r
8r	8r	8r	8EE-
=16	=16	=16	=16
8aa-	8cc	4c	(8AA-
8r	8r	.	16EE-k)
.	.	.	16r
8r	8r	4r	(8C
8cc	[8e-	.	16AA-k)
.	.	.	16r
=17	=17	=17	=17
(8b-	4e-]	2r	8GG
8ee-)	.	.	8r
8ee-	4r	.	8r
8r	.	.	8CC
=18	=18	=18	=18
4r	4r	2r	(8FF
.	.	.	16CCk)
.	.	.	16r
8r	8r	.	(8AA-
8a-	8Bn	.	16FFk)
.	.	.	16r
=19	=19	=19	=19
(8g	4c	4r	4EEn
8cc)	.	.	.
8cc'	8r	8r	4r
8cc'	8en	8c	.
=20	=20	=20	=20
(8bnz	4.fz	4.d-z	2r
8ff)	.	.	.
8ff'	.	.	.
(8b	(8f	(8d-	.
=21	=21	=21	=21
8cc)	8e)	8c)	4r
!	!	! dim.	!
8r	8r	8C	.
8r	8r	8C	8r
! dim.	! dim.	!	! dim.
(8f	(8dn	(8A-	(8BBn
=22	=22	=22	=22
8e)	8c)	8G)	8C)
8r	8r	8r	8CC'
8r	4r	4r	8CC'
! dol.	!	!	!
8c	.	.	8r
=23	=23	=23	=23
(8f	8A'	8c'	8F'
16ck)	8r	8r	8r
16r	.	.	.
(8an	8c'	8c'	8F'
16fk)	8r	8r	8r
16r	.	.	.
=24	=24	=24	=24
(8g	8c'	8c'	8E'
8cc)	8r	8r	8r
8cc'	8r	8r	8r
8cc'	8g'	8c'	8E'
=25	=25	=25	=25
(8a	8a	4c	4F
8dd)	8r	.	.
8dd	8r	8r	8r
(32ccn	8f	8d	8G
32bn	.	.	.
32a	.	.	.
32b)	.	.	.
=26	=26	=26	=26
(4bn	(4f	(4d	4.C
8cc)	8e)	8c)	.
8cc#	8f'	8F'	8AA'
=27	=27	=27	=27
(8dd	8f'	8F'	8BB-'
16fk)	8r	8r	8r
16r	.	.	.
(8ccn	8f'	8F'	8AA'
16fk)	8r	8r	8r
16r	.	.	.
=28	=28	=28	=28
(8e	8r	8r	(8GG
8bb-)	8g'	8c'	8EE)
8bb-'	8g'	8c'	8EE'
8aa'	8a'	8c'	8FF'
=29	=29	=29	=29
8gg'	8b-'	8d'	(8BB-
8ff'	8a'	8d'	8BBn)
(32gg	(32b-	8c'	8C'
32ff	32a	.	.
32ee	32g	.	.
32ff)	32a)	.	.
(16.gg	(16.b-	(24E	8C'
.	.	24G	.
32eek)	32gk)	24B-)	.
=30	=30	=30	=30
8ff	8a	8A	4FF
8r	8f'	8r	.
8r	8f'	4r	4r
8f	8f'	.	.
=31	=31	=31	=31
(8b-	[2f	8d	2r
16fk)	.	8r	.
16r	.	.	.
(8a	.	8c	.
16fk)	.	8r	.
16r	.	.	.
=32	=32	=32	=32
(8dd	8f]	(8B-	(8BB-
8ff)	8f'	8c)	8AA)
8ff'	8f'	8c'	8AA'
8ff'	8f'	8c'	8AA'
=33	=33	=33	=33
(8b-	[2f	8d	2r
16fk)	.	8r	.
16r	.	.	.
(8a	.	8c	.
16fk)	.	8r	.
16r	.	.	.
=34	=34	=34	=34
(8dd	8f]	(8B-	(8B-
8ff)	8f'	8c)	8A)
8ff'	8f'	8c'	8A'
8ff'	8cc'	8c'	8A'
=35	=35	=35	=35
! cresc.	! cresc.	! cresc.	! cresc.
(8ee	(8b-	8c'	(8G
8bb-)	8gg)	8c'	8E)
8bb-'	8gg'	8c'	8E'
8aa'	8ff'	8c'	8F'
=36	=36	=36	=36
(8gg	8ee'	(8B-	4r
8ddd)	8ee'	8b-)	.
16ddd'	16ee'	16b-'	8r
16r;	16r;	16r;	.
8a	8f	8c	8AA
=37	=37	=37	=37
8g'	4.f	(4d	(8BB-
8g'	.	.	8BBn
(8g	.	8c)	8C)
8b-)	8e	8G	8C'
=38	=38	=38	=38
(8a	4f	4A	4F
8f)	.	.	.
8f'	8r	8r	8r
8a'	8f	8c	8AA
=39	=39	=39	=39
8g'	4.f	(4d	(8BB-
8g'	.	.	8BBn
8g'	.	8c)	8C)
8cc'	8e	8G	8CC'
=40	=40	=40	=40
8a	8f	8A	8FF
8r	8r	8r	8r
8r	8r	8r	8r
!	! dolce	!	!
8r	8c	8r	8r
=41	=41	=41	=41
2r	(8f	8A'	8F'
.	16ck)	8r	8r
.	16r	.	.
.	(8a	8c'	8F'
.	16fk)	8r	8r
.	16r	.	.
=42	=42	=42	=42
! sotto voce	!	!	!
16cc'	(8g	4c	4E
16dd-'	.	.	.
16ddn'	8cc)	.	.
16ee-'	.	.	.
16een'	8cc'	8r	8r
16ff'	.	.	.
16ff#'	8cc'	8c	8E
16gg'	.	.	.
=43	=43	=43	=43
(16gg#	(8a	(8c	4F
16aa	.	.	.
16ggn	8dd)	8A)	.
16ffn)	.	.	.
(16ee	8dd	8r	8r
16dd	.	.	.
16ff	(32ccn	8f	8G
.	32bn	.	.
16dd)	32a	.	.
.	32b)	.	.
=44	=44	=44	=44
(4dd	(4bn	(4f	8C'
.	.	.	8c'
8cc)	8cc)	8e)	8C'
8r	8cc#'	8f'	8AA'
=45	=45	=45	=45
2r	(8dd	8f'	8BB-'
.	16fk)	8r	8r
.	16r	.	.
.	(8ccn	8f'	8AA'
.	16fk)	8r	8r
.	16r	.	.
=46	=46	=46	=46
16r	(8e	8r	(8GG
16ddd'	.	.	.
16ccc'	8b-)	8g'	8EE)
16bb-'	.	.	.
16aa'	8b-'	8c'	8EE'
16gg'	.	.	.
16ff'	8a'	8c'	8FF'
16gg'	.	.	.
=47	=47	=47	=47
(16aa	(8f	(8.c	8DD'
16gg#	.	.	.
!	! 32gP/LLL	!	!
!	! 32fP/	!	!
!	! 32eP/JJJ	!	!
16aa	16.f	.	8D'
16ee)	.	16B-k)	.
.	32gk)	.	.
(16ff	8a'	8A'	8r
16dd	.	.	.
16bn	8bn'	8d'	8GG'
16f)	.	.	.
=48	=48	=48	=48
(4f	(4bn	(4d	8CC'
.	.	.	8C'
8e)	8cc)	8c)	8CC
8r	8cc	8r	8r
=49	=49	=49	=49
16r	(8f	(8c	(8A-
(16cc	.	.	.
16dd-	16ek)	16B-k)	16Gk)
16cc)	16r	16r	16r
16r	(8g	(8d-	(8B-
16ee'	.	.	.
(16ee	16fk)	16ck)	16A-k)
16ff)	16r	16r	16r
=50	=50	=50	=50
16r	8b-'	8g'	8E'
(16ddd-	.	.	.
16ccc	8b-'	8g'	8E'
16bb-)	.	.	.
(16aa-	8b-'	8c'	8E'
16gg	.	.	.
16ff	8gg	8r	8r
16ee)	.	.	.
=51	=51	=51	=51
16r	(8b-	(8g	(8e
(16cc	.	.	.
16dd-	16a-k)	16a-k)	16fk)
16cc)	16r	16r	16r
16r	(8ff	8a-	(8d-
16ff'	.	.	.
16r	16ee-k)	16a-k	16ck)
16ee-'	16r	16r	16r
=52	=52	=52	=52
(16dd	8dd'	[2a-	8B-'
16een	.	.	.
16ff	8dd'	.	8B-'
16ee)	.	.	.
8ff	8dd'	.	8B-'
8r	8ee-	.	(8c-
=53	=53	=53	=53
16r	8dd'	8a-]	8B-)
(16ee	.	.	.
16ff	8dd'	8a-'	8B-'
16ee)	.	.	.
8ff	8dd'	8a-'	8B-'
8gg-	8r	8r	8r
=54	=54	=54	=54
(32ggn	4dd- 4e-	4b- 4g	4E-
32aa-	.	.	.
32bb-	.	.	.
32aa-	.	.	.
32gg	.	.	.
32aa-	.	.	.
32bb-	.	.	.
32ccc)	.	.	.
8ddd-'	8b- 8e-'	8b-'	8GG'
8ccc'	8cc 8e-'	8a-'	8AA-'
=55	=55	=55	=55
8bb-'	8ff'	8f'	4D-
8r	8r	8r	.
! dim.	! dim.	! dim.	!
8gg'	8b-'	8d-'	8r
8r	8r	8r	8EE-
=56	=56	=56	=56
8aa-	8cc	16r	(8AA-
.	.	16e-'	.
8r	8r	16d-'	16EE-k)
.	.	16c'	16r
4r	8r	16B-'	(8C
.	.	16A-'	.
.	8cc	16G'	16AA-k)
.	.	16A-'	16r
=57	=57	=57	=57
16r	(8b-	8E-	8GG
! sotto voce	!	!	!
16e-'	.	.	.
16g'	8ee-)	8r	8r
16b-'	.	.	.
16ee-'	8ee-	4r	8r
16gg'	.	.	.
8r	8r	.	8CC
=58	=58	=58	=58
2r	4r	16r	(8FF
.	.	16c'	.
.	.	16B-'	16CCk)
.	.	16A-'	16r
.	8r	16G'	(8AA-
.	.	16F'	.
.	8a-	16En'	16FFk)
.	.	16F'	16r
=59	=59	=59	=59
16r	(8g	4C	8EEn
16c'	.	.	.
16en'	8cc)	.	8r
16g'	.	.	.
16cc'	8cc'	8r	4r
16ee'	.	.	.
16gg'	8cc'	8c	.
16ee'	.	.	.
=60	=60	=60	=60
(8ffz	(8bnz	4.d-z	2r
8aa-)	8ff)	.	.
8aa-	8ff'	.	.
(32gg	(8b	(8d-	.
32ff	.	.	.
32ee	.	.	.
32ff)	.	.	.
=61	=61	=61	=61
8ee	8cc)	8c)	4r
!	!	! dim.	!
8r	8r	8C	.
4r	8r	8C	8r
!	! dim.	!	! dim.
.	(8f	(8A-	(8BBn
=62	=62	=62	=62
2r	8e)	8G)	8C)
.	8r	8r	8CC'
.	8r	4r	8CC'
!	! dolce	!	!
.	8c	.	8r
=63	=63	=63	=63
2r	(8f	8An'	8F'
.	16ck)	8r	8r
.	16r	.	.
.	(8an	8c'	8F'
.	16fk)	8r	8r
.	16r	.	.
=64	=64	=64	=64
! sotto voce	!	!	!
16cc'	(8g	4c	4E
16dd-'	.	.	.
16ddn'	8cc)	.	.
16ee-'	.	.	.
16een'	8cc'	8r	8r
16ff'	.	.	.
16ff#'	8cc'	8c	8E
16gg'	.	.	.
=65	=65	=65	=65
(16gg#	(8a	(8c	4F
16aa	.	.	.
16ggn	8dd)	8A)	.
16ffn)	.	.	.
(16ee	8dd	8r	8r
16dd	.	.	.
16ff	(32ccn	8f	8G
.	32bn	.	.
16dd)	32a	.	.
.	32b)	.	.
=66	=66	=66	=66
(4dd	(4bn	(4f	8C'
.	.	.	8c'
8cc)	8cc)	8e)	8C'
8r	8cc#'	8f'	8AA'
=67	=67	=67	=67
2r	(8dd	8f'	8BB-'
.	16fk)	8r	8r
.	16r	.	.
.	(8ccn	8f'	8AA'
.	16fk)	8r	8r
.	16r	.	.
=68	=68	=68	=68
16r	(8e	8r	(8GG
(16ddd	.	.	.
16ccc	16b-k)	8c	8EE)
16bb-)	16r	.	.
(16aa	(8c	8r	8EE'
16gg	.	.	.
16bb-	16ak)	8c	8FF'
16aa)	16r	.	.
=69	=69	=69	=69
(16aa	(16d	8r	(8BB-
16gg)	16e	.	.
(16gg	16f	8d	8BBn)
16ff)	16g)	.	.
(32gg	(32b-	8c	8C'
32ff	32a	.	.
32ee	32g	.	.
32ff)	32a)	.	.
(16gg	(16b-	8B-	8C'
16ee)	16g)	.	.
=70	=70	=70	=70
8ff	8a	4A	4FF
8fff'	8r	.	.
8fff'	8r	4r	4r
8fff'	8f	.	.
=71	=71	=71	=71
[2fff	(8b-	8d	2r
.	16fk)	8r	.
.	16r	.	.
.	(8a	8c	.
.	16fk)	8r	.
.	16r	.	.
=72	=72	=72	=72
4fff]	(8dd	(8dd	(8BB-
.	8ff)	8cc)	8AA)
(32fff	8ff'	8cc'	8AA'
32eee	.	.	.
32fff	.	.	.
32eee	.	.	.
32fff	8ff'	8cc'	8AA'
32eee	.	.	.
32fff	.	.	.
32eee)	.	.	.
=73	=73	=73	=73
[2fff	(8b-	8d	2r
.	16fk)	8r	.
.	16r	.	.
.	(8a	8c	.
.	16fk)	8r	.
.	16r	.	.
=74	=74	=74	=74
4fff_	8dd	8r	(8B-
.	[8ff	8c	8A)
(16fff]	(16ff]	8c	8A'
16eee	16ee	.	.
16ddd	16dd	8c	8A'
16ccc)	16cc)	.	.
=75	=75	=75	=75
8ccc	[2cc	8r	8r
[8bb-	.	8g	8e
(16bb-]	.	8g	8e
16aa	.	.	.
16gg	.	8a	8f
16ff)	.	.	.
=76	=76	=76	=76
(2ff	2cc_	[2b-	[2g
=77	=77	=77	=77
4ee)	4cc]	4b-]	4g]
8r	8r	8r	8r
(16f	8a'	8c	8AA
16A)	.	.	.
=78	=78	=78	=78
(16f	8g'	(4d	(8BB-
16G)	.	.	.
(16f	8g'	.	8BBn
16G)	.	.	.
(16f	(8g	8c)	8C)
16G)	.	.	.
(16e	8b-)	8c	8C'
16G)	.	.	.
=79	=79	=79	=79
4f	(8a	4c	4FF
.	8f)	.	.
8r	8f'	8r	8r
(16f	8a'	8c	8AA
16A)	.	.	.
=80	=80	=80	=80
(16f	8g'	(4d	(8BB-
16G)	.	.	.
(16f	8g'	.	8BBn
16G)	.	.	.
(16f	8g'	8c)	8C)
16G)	.	.	.
(16e	8cc']	8c	8C'
16G)	.	.	.
=81	=81	=81	=81
8f	8a	8c	8FF
8r	8r	8r	8r
8r	8r	8r	8r
8r	8r	8c	8r
=82	=82	=82	=82
(24A	8r	(8f	8r
24c	.	.	.
24f)	.	.	.
8r	8A	16ck)	8F
.	.	16r	.
(24a	8r	(8a	8r
24cc	.	.	.
24ff)	.	.	.
8r	8A	16fk)	8F
.	.	16r	.
=83	=83	=83	=83
(24c	8r	(8g	8r
24e	.	.	.
24g)	.	.	.
8r	8g 8c	8cc)	8E
(24ee	8r	8cc'	8r
24gg	.	.	.
24ccc)	.	.	.
8r	8g 8c	8cc'	8E
=84	=84	=84	=84
(24c	8r	(8a	8r
24f	.	.	.
24a)	.	.	.
8r	8a	8dd)	8F
(24dd	8r	8dd	8r
24ff	.	.	.
24aa)	.	.	.
(24bn	8d	(32ccn	8G
.	.	32bn]	.
24dd	.	32a	.
24ff)	.	32b)	.
=85	=85	=85	=85
(4ff	8r	(4bn	8r
.	(8d	.	8C'
8ee)	8e)	8cc)	8CC'
8ccc#'	8cc#'	8cc#'	8c#'
=86	=86	=86	=86
8ddd'	8dd'	8dd'	8d'
8gg	8g'	8g'	8G'
(32bbn	(32bn	(32bn	(32Bn
32ccc	32cc	32cc	32c
32bb	32b	32b	32B
32ccc)	32cc)	32cc)	32c)
16ff'	16f'	16f'	16F'
16r	16r	16r	16r
=87	=87	=87	=87
(32ee	(32c	(32e	(32B-
32ff	32d	32f	32A
32gg	32e	32g	32G
32aa)	32f)	32a)	32F)
(4bb-z	(4gz	(4b-z	(4Ez
8aa)	8f)	8a)	8F)
=88	=88	=88	=88
(8ff	4a 4f	(8f	4D
! 32ggP/LLL	!	! 32gP/LLL	!
! 32ffP/	!	! 32fP/	!
! 32eeP/JJJ	!	! 32eP/JJJ	!
16.ff	.	16.f	.
32ggk)	.	32gk)	.
8aa'	8r	8a'	8r
8f'	8d'	8bn'	8GG'
=89	=89	=89	=89
(4f	(4d	(4bn	4CC
8e)	8c)	8cc)	8r
8r	8r	8r	8C
=90	=90	=90	=90
4r	4r	2r	(8F
.	.	.	16Ck)
.	.	.	16r
8r	8r	.	(8A
8ff	8a	.	16Fk)
.	.	.	16r
=91	=91	=91	=91
(4ff	([4b-	2r	(8G
.	.	.	8c)
8ee)	16b-]	.	8c'
.	16g	.	.
8gg	16e	.	8c'
.	16b-)	.	.
=92	=92	=92	=92
(4gg	([4cc	2r	(8A
.	.	.	8d)
8ff)	16cc]	.	8d
.	16bn	.	.
8aa'	16ff)	.	(32cn
.	.	.	32Bn
.	16ff'	.	32A
.	.	.	32B)
=93	=93	=93	=93
(4aa	4ff	2r	(4Bn
4gg	[4ee	.	8c)
.	.	.	8c#
=94	=94	=94	=94
4ff	8ee]	2r	(8d
.	4dd	.	16Fk)
.	.	.	16r
4ee	.	.	(8cn
.	[8cc	.	16Fk)
.	.	.	16r
=95	=95	=95	=95
4dd	8cc]	4r	(8B-
.	4b-	.	16Ek)
.	.	.	16r
4cc)	.	8r	(8E
.	8a	8c	8F)
=96	=96	=96	=96
4.ff	(8f	(8.a	(8D
!	! 32gP/LLL	!	! 32EP/LLL
!	! 32fP/	!	! 32DP/
!	! 32eP/JJJ	!	! 32C#P/JJJ
.	16.f	.	16.D
.	.	16gk)	.
.	32gk)	.	32Ek)
.	8a'	8f'	8F'
8f	8bn'	8d'	8G'
=97	=97	=97	=97
(4f	(4bn	(4d	4Cn
8e)	8cc)	8c)	4r
8cc	8r	8r	.
=98	=98	=98	=98
(8f	(8c	2r	(8A-
16ek)	16B-k)	.	16Gk)
16r	16r	.	16r
(8g	(8d-	.	(8B-
16fk)	16ck)	.	16A-k)
16r	16r	.	16r
=99	=99	=99	=99
8b-'	8c'	8g'	8E'
8b-'	8c'	8g'	8E'
8b-'	8c'	8g'	8E'
8gg	8r	8r	8r
=100	=100	=100	=100
(8b-	(8g	(8e	2r
16a-k)	16a-k)	16fk)	.
16r	16r	16r	.
(8ff	8a-	(8d-	.
16ee-k)	8a-	16ck)	.
16r	.	16r	.
=101	=101	=101	=101
8dd'	(16a-	8B-'	2r
.	16f	.	.
8dd'	16a-	8B-'	.
.	16f)	.	.
8dd'	8a-	8B-'	.
8ee-	8a-	(8c-	.
=102	=102	=102	=102
8dd'	(16a-	8B-)	2r
.	16f	.	.
8dd'	16a-	8B-'	.
.	16f)	.	.
8dd'	8a-	8B-'	.
8r	8r	8r	.
=103	=103	=103	=103
24g'	4dd- 4e-	4b- 4g	4E-
24b-'	.	.	.
24dd-'	.	.	.
24ee-'	.	.	.
24gg'	.	.	.
24bb-'	.	.	.
8ddd-'	8b- 8e-'	8b-'	8GG'
8ccc'	8cc 8e-'	8a-'	8AA-'
=104	=104	=104	=104
24bb-'	8f'	8d-	8DD-'
24ccc'	.	.	.
24ddd-'	.	.	.
24ccc'	8r	8r	8r
24bb-'	.	.	.
24aa-'	.	.	.
! dim.	! dim.	!	!
24gg'	8B-'	8r	8EE-'
24ff'	.	.	.
24ee-'	.	.	.
24dd-'	8r	8E-	8r
24cc'	.	.	.
24b-'	.	.	.
=105	=105	=105	=105
4a-	8c	(8A-	4r
.	8r	16E-k)	.
.	.	16r	.
8r	8r	(8c	8r
8cc	8e-'	16A-k)	[8AA-
.	.	16r	.
=106	=106	=106	=106
(16b-	8e-'	8e-	8AA-]
16cc	.	.	.
16dd-	8r	8r	8GG
16ddn)	.	.	.
(16ff	4r	8r	8GG
16ee-)	.	.	.
8r	.	8C	8r
=107	=107	=107	=107
4r	4r	(8F	4r
.	.	16Ck)	.
.	.	16r	.
8r	8r	(8A-	8r
8a-'	8c	16Fk)	[8FF
.	.	16r	.
=108	=108	=108	=108
(16f#	8c'	4c	8FF]
16g	.	.	.
16cc	8r	.	8EEn
16bn)	.	.	.
(16dd	8r	8r	8EE
16cc	.	.	.
16gg	8en'	8c	8r
16cc)	.	.	.
=109	=109	=109	=109
(16bnz	4.fz	4.d-z	2r
16aa-	.	.	.
16gg	.	.	.
16ffn	.	.	.
16ee-	.	.	.
16dd-	.	.	.
16cc	(8f	(8d-	.
16b)	.	.	.
=110	=110	=110	=110
8cc'	8e)	8c)	4r
!	!	! dim.	!
8r	8r	8C'	.
8r	8r	8C'	8r
! dim.	! dim.	!	! dim.
(8f	(8d	(8A-	(8BBn
=111	=111	=111	=111
8en)	8c)	8G)	8C)
8r	8r	8r	8CC'
4r	4r	4r	8CC'
.	.	.	8C
=112	=112	=112	=112
(16An	4r	2r	(8F
16c	.	.	.
16f	.	.	16Ck)
16a)	.	.	16r
8cc	8r	.	(8An
8ff	8a	.	16Fk)
.	.	.	16r
=113	=113	=113	=113
(4ff	([4b-	2r	(8G
.	.	.	8c)
8ee)	16b-]	.	8c'
.	16g	.	.
8gg	16e	.	8c'
.	16b-)	.	.
=114	=114	=114	=114
(8.gg	([4cc	2r	(8A
.	.	.	8d)
32aa	.	.	.
32gg)	.	.	.
8ff	16cc]	.	8d
.	16bn	.	.
8aa	16ff)	.	(32cn
.	.	.	32Bn
.	16ff'	.	32A
.	.	.	32B)
=115	=115	=115	=115
(4aa	4ff	2r	(4Bn
4gg	[4ee	.	8c)
.	.	.	8c#
=116	=116	=116	=116
4ff	8ee]	2r	(8d
.	4dd	.	16Fk)
.	.	.	16r
4ee	.	.	(8cn
.	[8cc	.	16Fk)
.	.	.	16r
=117	=117	=117	=117
4dd	8cc]	4r	(8B-
.	4b-	.	16Ek)
.	.	.	16r
4cc)	.	8r	(8E
.	8a	8c	8F)
=118	=118	=118	=118
8b-	8g	(4d	(8BB-
8a	8f	.	8BBn
(32b-	(32g	8c)	8C)
32a	32f	.	.
32g	32e	.	.
32a)	32f)	.	.
(16.b-	(16.g	8B-	8C'
32gk)	32ek)	.	.
=119	=119	=119	=119
8f	8f	8A	4FF
8r	8f'	8r	.
8r	8f'	4r	4r
8f	8f'	.	.
=120	=120	=120	=120
(8b-	[2f	8d	2r
16fk)	.	8r	.
16r	.	.	.
(8a	.	8c	.
16fk)	.	8r	.
16r	.	.	.
=121	=121	=121	=121
(8dd	8f]	(8B-	(8BB-
8ff)	8f'	8c)	8AA)
8ff'	8f'	8c'	8AA'
8ff'	8f'	8c'	8AA'
=122	=122	=122	=122
(32b-	[2f	8d	2r
32cc	.	.	.
32b-	.	.	.
32a)	.	.	.
16b-	.	8r	.
16f	.	.	.
(32a	.	8c	.
32b-	.	.	.
32a	.	.	.
32g)	.	.	.
16a	.	8r	.
16f	.	.	.
=123	=123	=123	=123
(16dd	8f]	(8B-	(8B-
16ee-	.	.	.
16een	8f'	8c)	8A)
16ff)	.	.	.
8ff'	8f'	8c'	8A'
8ff'	8cc'	8c'	8A'
=124	=124	=124	=124
(32ee	8b-	8c	8G
32cc	.	.	.
32ee	.	.	.
32gg)	.	.	.
4bb-z	4gz	4cz	4Ez
8aa	8f	8c	8F
=125	=125	=125	=125
4gg;	4.e; 4.G	4.c;	4.BB-;
8ddd;	.	.	.
8a'	8f	8c	8AA
=126	=126	=126	=126
8g'	(4.f	(8d-	(8BB-
8g'	.	8dn	8BBn
(16g	.	8c)	8C)
16a-	.	.	.
16an	8e)	8G'	8C'
16b-)	.	.	.
=127	=127	=127	=127
(8a	8f	8A	4FF
8f)	8r	8r	.
8f'	8r	8r	8r
8a'	8f	8c	8AA
=128	=128	=128	=128
8g'	4.f	(8d-	(8BB-
8g'	.	8dn	8BBn
8g'	.	8c)	8C)
8ee' 8b- 8g	8b- 8g 8c'	8c'	8CC'
=129	=129	=129	=129
8ff 8a 8f	8a 8f 8c'	8c'	8FF'
8r	8r	8r	8r
4r	4r	4r	4r
==|!	==|!	==|!	==|!
*-	*-	*-	*-
!!!RWG: Appoggiaturas of spine 'Violino I' need manual editing in measures: 7, 88
!!!RWG: Appoggiaturas of spine 'Violino II' need manual editing in measures: 47, 96
!!!RWG: Appoggiaturas of spine 'Viola' need manual editing in measures: 88
!!!RWG: Appoggiaturas of spine 'Violoncello' need manual editing in measures: 96
!!!RWG: Key is interpreted using the Humdrum key tool.
!!!GTL: 6 Quartetti ("Tost III")
!!!AFT: stage2
!!!END: 1994/11/13
!!format changes:
!!content changes:
!!public access: complete
!!!KEY: 2963845698
!!!EMD: Converted from MuseData to Humdrum Dec 16, 2000, by Andreas Kornstaedt using muse2kern.
